X: 38165
T: Sporting Pitchfork, The
R: jig
M: 6/8
K: Dmixolydian
~=F3 ~E3|~^F3 DEF|~G3 AGA|cAG FGA|
BdB BAG|ABA ABc|dcA AGF|1 AGF G2E:|2 AGF G2B||
|:d2e fed|faf def|g2a bag|fd^c d2=c|
~B3 BAG|ABA ABc|dcA AGF|1 AGF G2B:|2 AGF G2E||

